vendor/shopware/storefront/Resources/app/storefront/dist/assets/icon/default/target-big.svg

<svg xmlns="http://www.w3.org/2000/svg" width="24" height="24" viewBox="0 0 24 24">
  <path fill="#758CA3" fill-rule="evenodd" d="M12,11 C12.5522847,11 13,11.4477153 13,12 C13,12.5522847 12.5522847,13 12,13 C11.4477153,13 11,12.5522847 11,12 C11,11.4477153 11.4477153,11 12,11 Z M11,20.9450712 C6.82838339,20.4839224 3.5160776,17.1716166 3.05492878,13 L1,13 C0.44771525,13 0,12.5522847 0,12 C0,11.4477153 0.44771525,11 1,11 L3.05492878,11 C3.5160776,6.82838339 6.82838339,3.5160776 11,3.05492878 L11,1 C11,0.44771525 11.4477153,0 12,0 C12.5522847,0 13,0.44771525 13,1 L13,3.05492878 C17.1716166,3.5160776 20.4839224,6.82838339 20.9450712,11 L23,11 C23.5522847,11 24,11.4477153 24,12 C24,12.5522847 23.5522847,13 23,13 L20.9450712,13 C20.4839224,17.1716166 17.1716166,20.4839224 13,20.9450712 L13,23 C13,23.5522847 12.5522847,24 12,24 C11.4477153,24 11,23.5522847 11,23 L11,20.9450712 Z M12,19 C15.8659932,19 19,15.8659932 19,12 C19,8.13400675 15.8659932,5 12,5 C8.13400675,5 5,8.13400675 5,12 C5,15.8659932 8.13400675,19 12,19 Z"/>
</svg>

<svg xmlns="http://www.w3.org/2000/svg" width="24" height="24" viewBox="0 0 24 24"><path fill="#758CA3" fill-rule="evenodd" d="M12 11c.5523 0 1 .4477 1 1s-.4477 1-1 1-1-.4477-1-1 .4477-1 1-1zm-1 9.945C6.8284 20.484 3.516 17.1717 3.055 13H1c-.5523 0-1-.4477-1-1s.4477-1 1-1h2.055C3.516 6.8284 6.8283 3.516 11 3.055V1c0-.5523.4477-1 1-1s1 .4477 1 1v2.055c4.1716.461 7.484 3.7734 7.945 7.945H23c.5523 0 1 .4477 1 1s-.4477 1-1 1h-2.055c-.461 4.1716-3.7734 7.484-7.945 7.945V23c0 .5523-.4477 1-1 1s-1-.4477-1-1v-2.055zM12 19c3.866 0 7-3.134 7-7s-3.134-7-7-7-7 3.134-7 7 3.134 7 7 7z"/></svg>
